!!!OTL: Moyanggong
!!!ARE: Asia, China,ÿHebei Changli
!! IV, 34
!!!SCT: C1917
!!!YEM: Copyright 1995, estate of Helmut Schaffrath.
**kern
*ICvox
*Ivox
*M2/4
*k[f#c#g#]
*A:
{4ee
8ff#
8ee
=1
8cc#
8b
8a
8f#
=2
4ee
8ff#
8ee
=3
4cc#
4r}
=4
{4a
8a
8f#
=5
4ee
8ff#
8ee
=6
4cc#
8b
8f#
=7
4a
4r}
=8
{8a
8a
8a
8f#
=9
4ff#
8ff#
8ee
=10
4cc#
8ee
8cc#
=11
4b
4b}
=12
{8ee
8cc#
8ee
8ee
=13
8a
8b
4cc#
=14
8b
8a
4f#
=15
2e}
=16
{8a
8f#
8a
8b
=17
8cc#
8b
4cc#}
=18
{8ee
8cc#
4ee
=19
8a
8b
4cc#
=20
8b
8a
4f#
=21
2e}
==
!!!AGN: Xiaodiao
!!!AMT: simple duple
!!!AIN: vox
!!!EED: Helmut Schaffrath
!!!EEV: 1.0
*-
